UI/Navigation-Image/SVG/color-override_outline_24px.svg

<svg width="24" height="24" viewBox="0 0 24 24" fill="none" xmlns="http://www.w3.org/2000/svg">
<path d="M15 5.26C17.35 8.45 20 12.77 20 15C20 18.41 18.41 20 15 20C11.59 20 10 18.41 10 15C10 12.77 12.65 8.45 15 5.26ZM15 2C15 2 8 10.5 8 15C8 19 10 22 15 22C20 22 22 19 22 15C22 10.5 15 2 15 2ZM9 2C9 2 2 10.5 2 15C2 19 4 21.92 8.8 22C8.07176 21.3867 7.47629 20.6313 7.05 19.78C5 19.23 4 17.67 4 15C4 12.77 6.65 8.45 9 5.26L10.24 3.6L9 2ZM13.5 17C13.2033 17 12.9133 16.912 12.6666 16.7472C12.42 16.5824 12.2277 16.3481 12.1142 16.074C12.0006 15.7999 11.9709 15.4983 12.0288 15.2074C12.0867 14.9164 12.2296 14.6491 12.4393 14.4393C12.6491 14.2296 12.9164 14.0867 13.2074 14.0288C13.4983 13.9709 13.7999 14.0006 14.074 14.1142C14.3481 14.2277 14.5824 14.42 14.7472 14.6666C14.912 14.9133 15 15.2033 15 15.5C15 15.8978 14.842 16.2794 14.5607 16.5607C14.2794 16.842 13.8978 17 13.5 17Z" fill="#0F1621"/>
</svg>

<svg xmlns="http://www.w3.org/2000/svg" width="24" height="24" viewBox="0 0 24 24"><g style="opacity:0"><rect width="24" height="24" style="fill:none"/></g><path d="M15,5.26c2.35,3.19,5,7.51,5,9.74,0,3.41-1.59,5-5,5s-5-1.59-5-5c0-2.23,2.65-6.55,5-9.74M15,2S8,10.5,8,15c0,4,2,7,7,7s7-3,7-7c0-4.5-7-13-7-13ZM9,2S2,10.5,2,15C2,19,4,21.92,8.8,22a7,7,0,0,1-1.75-2.22C5,19.23,4,17.67,4,15c0-2.23,2.65-6.55,5-9.74L10.24,3.6Zm4.5,15A1.5,1.5,0,1,1,15,15.5,1.5,1.5,0,0,1,13.5,17Z"/></svg>
